svg/icon-windows.svg

<?xml version="1.0" encoding="UTF-8" standalone="no"?>
<svg
   xmlns:dc="http://purl.org/dc/elements/1.1/"
   xmlns:cc="http://creativecommons.org/ns#"
   xmlns:rdf="http://www.w3.org/1999/02/22-rdf-syntax-ns#"
   xmlns:svg="http://www.w3.org/2000/svg"
   xmlns="http://www.w3.org/2000/svg"
   xmlns:sodipodi="http://sodipodi.sourceforge.net/DTD/sodipodi-0.dtd"
   xmlns:inkscape="http://www.inkscape.org/namespaces/inkscape"
   version="1.1"
   viewBox="0 0 24 24"
   id="svg4"
   sodipodi:docname="icon-windows.svg"
   width="24"
   height="24"
   inkscape:version="0.92.4 (unknown)">
  <metadata
     id="metadata10">
    <rdf:RDF>
      <cc:Work
         rdf:about="">
        <dc:format>image/svg+xml</dc:format>
        <dc:type
           rdf:resource="http://purl.org/dc/dcmitype/StillImage" />
        <dc:title></dc:title>
      </cc:Work>
    </rdf:RDF>
  </metadata>
  <defs
     id="defs8" />
  <sodipodi:namedview
     pagecolor="#ffffff"
     bordercolor="#666666"
     borderopacity="1"
     objecttolerance="10"
     gridtolerance="10"
     guidetolerance="10"
     inkscape:pageopacity="0"
     inkscape:pageshadow="2"
     inkscape:window-width="1366"
     inkscape:window-height="704"
     id="namedview6"
     showgrid="false"
     inkscape:zoom="3.6875"
     inkscape:cx="32"
     inkscape:cy="32"
     inkscape:window-x="0"
     inkscape:window-y="27"
     inkscape:window-maximized="1"
     inkscape:current-layer="svg4" />
  <path
     d="m 2.0312215,4.8285988 8.1486105,-1.1083363 0.0035,7.8364045 -8.1486105,0.0462 z m 8.1486105,7.6490782 0.0062,7.867625 L 2.0374631,19.227598 2.0370072,12.42148 Z M 11.166407,3.57977 21.968778,2 v 9.459882 l -10.802371,0.08555 z M 21.968778,12.571338 21.966278,22 11.163906,20.47955 11.148796,12.549485 Z"
     id="path2"
     inkscape:connector-curvature="0"
     style="fill:#1f2932;stroke-width:1.60000014" />
</svg>

<svg width="24" height="24" version="1.1" viewBox="0 0 24 24" xmlns="http://www.w3.org/2000/svg"><path d="m2.03 4.83 8.15-1.11 0.0035 7.84-8.15 0.0462zm8.15 7.65 0.0062 7.87-8.15-1.12-4.56e-4 -6.81zm0.987-8.9 10.8-1.58v9.46l-10.8 0.0856zm10.8 8.99-0.0025 9.43-10.8-1.52-0.0151-7.93z" fill="#1f2932" stroke-width="1.6"/></svg>
